icons/letrina_alt.svg

<svg width="48" height="48" viewBox="0 0 48 48" fill="none" xmlns="http://www.w3.org/2000/svg">
<path fill-rule="evenodd" clip-rule="evenodd" d="M9 6C7.34315 6 6 7.34315 6 9V25H12L12 28C12 29.5 13.7534 30 14.5 30V42H29V36.9401C35.6994 36.3992 41.0553 32.2071 41.8875 25C41.9618 24.3572 42 23.6904 42 23H18V9C18 7.34315 16.6569 6 15 6H9ZM16 9C16 8.44772 15.5523 8 15 8H9C8.44772 8 8 8.44772 8 9V10H16V9ZM14 27.8477L14 25H39.8725C39.5083 27.7606 38.3872 29.918 36.8162 31.5022C34.8657 33.4692 32.0889 34.6842 28.839 34.9466L28.1781 35H23.5V37H27V40H16.5V28H14.5042C14.5003 27.9998 14.4829 27.9987 14.4537 27.9946C14.4125 27.9889 14.3595 27.9789 14.2995 27.9633C14.1819 27.9326 14.0771 27.8906 14 27.8477ZM16 12H8V23H16V12Z" fill="black"/>
<path d="M20 20C20 19.4477 20.4477 19 21 19H41C41.5523 19 42 19.4477 42 20C42 20.5523 41.5523 21 41 21H21C20.4477 21 20 20.5523 20 20Z" fill="black"/>
</svg>

<svg
  xmlns="http://www.w3.org/2000/svg"
  width="24"
  height="24"
  viewBox="0 0 24 24"
  fill="none"
  stroke="currentColor"
  stroke-width="2"
  stroke-linecap="round"
  stroke-linejoin="round"
>
  <path
    fill-rule="evenodd"
    d="M9 6a3 3 0 0 0-3 3v16h6v3c0 1.5 1.753 2 2.5 2v12H29v-5.06c6.7-.54 12.055-4.733 12.888-11.94q.111-.965.112-2H18V9a3 3 0 0 0-3-3zm7 3a1 1 0 0 0-1-1H9a1 1 0 0 0-1 1v1h8zm-2 18.848V25h25.873c-.365 2.76-1.486 4.918-3.057 6.502-1.95 1.967-4.727 3.182-7.977 3.445l-.66.053H23.5v2H27v3H16.5V28h-1.996l-.05-.005a1.4 1.4 0 0 1-.454-.147M16 12H8v11h8z"
    clip-rule="evenodd"
  />
  <path d="M20 20a1 1 0 0 1 1-1h20a1 1 0 1 1 0 2H21a1 1 0 0 1-1-1" />
</svg>
